X:1
T:Whispering Winds Softly Sighing
T:Whispering Winds Softly Sighing
T:William A. Post
T:LIzzie DeArmond, 1906
T:Public Domain Courtesy of the Cyber Hymnal™
T:Public Domain Courtesy of the Cyber Hymnal™
C:William A. Post
Z:Public Domain
Z:Courtesy of the Cyber Hymnal™
%%score ( 1 2 ) ( 3 4 )
L:1/8
Q:1/4=100
M:6/8
K:F
V:1 treble 
V:2 treble 
V:3 bass 
V:4 bass 
V:1
 CF[A,CG] Ac[DFAd] | [DFAd]3 [A,CFA]3 | [CEGc]3 [CEG]3 | [CFA]3 [A,CF]3 | CF[A,CG] Ac[DFAd] | %5
w: 1.~Whis- per- ing winds soft- ly|sigh- ing,|day- light|dy- ing,|Stars thro’ the low- bend- ing|
w: 2.~Lul- la- bies ten- der- ly|swell- ing,|sweet- ly|tell- ing,|Je- sus the prom- ised Mes-|
w: 3.~Sil- ver- y e- choes are|ring- ing,|good news|bring- ing,|Blend- ing with songs of the|
 [DFAd]3 [CFA]3 | [EAc]3 [D^G=B]3 | [CEA]3- [CEA]2 z | %8
w: heav- ens|slow- ly|creep; *|
w: si- ah,|draw- eth|near; *|
w: an- gels|far a-|way, *|
"^Soprano & Alto" [GB][FA][EG] [^D^F][EG][B=d] | [Ac]3 [FA]3 | [GB]3 [EG]3 | [^Gd]3 [Ac]3 | %12
w: Flut- ter- ing wings of the|an- gels|swift de-|scend- ing,|
w: Hushed in- to won- der- ing|si- lence,|shep- herds|list- en,|
w: Breath- ing their sto- ry of|glad- ness|through the|still- ness,|
 [Af][ce][Bd] [Ac][GB][FA] | [DG]3 [B,D]3 | [CE]3 [Ec]3 | F3- F2 z ||"^Refrain" C3 [A,CD]2 z | %17
w: Beau- ti- ful chor- als a-|wak- ing|earth from|sleep. *||
w: Glo- ry light stream- ing a-|round them,|bright and|clear. *|Hail Him!|
w: Hail to the Sav- ior most|ho- ly,|born to-|day. *||
 E3 ([A,C][A,C]) [A,CF]2 z | A3 [F^Ge]2 [FGd] | c3 ([FA][FA]) [FA]2 z | [EGc]3 [DEB]3 | %21
w: ||||
w: hail Him! * Je-|* sus the|ho- ly. * Hal-|* le-|
w: ||||
 [CEA]3 [B,EG]3 | [A,F]2 [CA] [=B,G]2 [B,D] | G3- [CG]2 z | [CAc]3 [DAd]3 | [EAe]3 [FAf]3 | %26
w: |||||
w: lu- jah,|sing un- to His|name; Now|* and|ev- er-|
w: |||||
 [A_ea]3 [cec']3 | [Bdb]3- [Bdb]2 z | [F^G=Be]3 [FGBd]2 B | [FAd]3 [FAd]2 C | [CEA]3 [CEG]3 | %31
w: |||||
w: more the|same, *|Hail Him with|glad- ness, His|power pro-|
w: |||||
 [A,CF]3- [A,CF]2 z |] %32
w: |
w: claim. *|
w: |
V:2
 [A,C]2 [CF]2 x2 | x6 | x6 | x6 | [A,C]2 [CF]2 x2 | x6 | x6 | x6 | x6 | x6 | x6 | x6 | x6 | x6 | %14
 x6 | F3- F2 x || (A,A,A,) x3 | [A,C] x7 | (FFF) x3 | [FA] x7 | x6 | x6 | x6 | CED x3 | x6 | x6 | %26
 x6 | x6 | x6 | x6 | x6 | x6 |] %32
V:3
 F,,2 C, F,2 C, | (F,,2 C,) (F,2 C,) | (C,,2 C,) (E,2 C,) | (F,,2 C,) (F,2 C,) | F,,2 C, F,2 B,, | %5
 (F,,2 C,) (F,2 C,) | (E,,2 E,) (^G,2 E,) | (A,E,C, A,,2) z | C,,2 C, B,2 C, | (F,,2 C,) (F,2 C,) | %10
 (C,,2 C,) (C2 C,) | (F,,2 C,) (F,2 C,) | F,,2 C, F,2 C, | (B,,2 D,) (G,2 D,) | (C,2 E,) (B,2 E,) | %15
 A,3- [F,,A,]2 z || [F,,C,F,][F,,C,F,][F,,C,F,] [F,,C,F,]2 z | %17
 ([F,,C,F,][F,,C,F,][F,,C,F,]) [F,,C,F,]2 z x2 | ([F,C][F,C][F,C]) [F,=B,]3 | %19
 ([F,C][F,C][F,C]) [F,C]2 z x2 | (C,,C,C,) C,3 | (C,,C,C,) C,3 | %22
 [F,,C,]2 [F,,F,] [G,,F,]2 [G,,F,] | (E,G,F, [C,E,]2) z | (F,,[C,F,A,][C,F,A,]) [C,F,A,]3 | %25
 (F,,[C,F,A,][C,F,A,]) [C,F,A,]3 | (F,,[F,A,_E][F,A,E]) [F,A,E]3 | (B,,[F,B,D][F,B,D] [F,B,D]2) z | %28
 (=B,,F,^G,) =B,2 z | (C,F,A,) C2 z | (C,E,G,) (B,2 E,) | (F,C,A,, F,,2) z |] %32
V:4
 x6 | x6 | x6 | x6 | x6 | x6 | x6 | x6 | x6 | x6 | x6 | x6 | x6 | x6 | x6 | F,C,A,, x3 || x6 | x8 | %18
 x6 | x8 | x6 | x6 | x6 | C,3- x3 | x6 | x6 | x6 | x6 | x6 | x6 | x6 | x6 |] %32

